X: 10492
T: Donnybrook Fair
R: jig
M: 6/8
K: Gmajor
D|GFG AGA|Bge dBA|BAB GAB|AGE GED|
GFG AGA|Bge dBA|BAB GAB|AGF G2:|
f|gfe fed|efg dBA|Bee dBA|Bee e2 f
[1 gfe fed|efg dBA|BAB GAB|AGF G2:|
[2 gbg faf|ege dBA|BAB GAB|AGF G2||

